images/twitter.svg

<svg width="33" height="33" viewBox="0 0 33 33" fill="none" xmlns="http://www.w3.org/2000/svg">
<circle cx="16.5" cy="16.5" r="16.5" fill="#00AA96"/>
<path d="M25.2451 12.2926C24.6676 12.5401 24.0077 12.7051 23.3477 12.7876C24.0077 12.3751 24.5851 11.7151 24.8326 10.9726C24.1726 11.3851 23.5127 11.6326 22.6877 11.7976C22.1102 11.1376 21.2027 10.7251 20.2952 10.7251C18.4802 10.7251 16.9952 12.2101 16.9952 14.0251C16.9952 14.2726 16.9952 14.5201 17.0777 14.7676C14.3552 14.6026 11.8802 13.2826 10.2302 11.3026C9.98269 11.7976 9.81769 12.3751 9.81769 12.9526C9.81769 14.1076 10.3952 15.0976 11.3027 15.6751C10.7252 15.6751 10.2302 15.5101 9.81769 15.2626C9.81769 16.8301 10.9727 18.2326 12.4577 18.4801C12.2102 18.5626 11.8802 18.5626 11.5502 18.5626C11.3027 18.5626 11.1377 18.5626 10.8902 18.4801C11.3027 19.8001 12.5402 20.7901 14.0252 20.7901C12.8702 21.6976 11.4677 22.1926 9.90019 22.1926C9.65269 22.1926 9.40519 22.1926 9.0752 22.1101C10.5602 23.0176 12.2927 23.5951 14.1902 23.5951C20.2952 23.5951 23.5951 18.5626 23.5951 14.1901V13.7776C24.2551 13.5301 24.8326 12.9526 25.2451 12.2926Z" fill="#EBFFF3"/>
</svg>

<svg xmlns="http://www.w3.org/2000/svg" width="33" height="33" fill="none" xmlns:v="https://vecta.io/nano"><circle cx="16.5" cy="16.5" r="16.5" fill="#00aa96"/><path d="M25.245 12.293c-.578.248-1.237.412-1.897.495.66-.412 1.237-1.072 1.485-1.815-.66.412-1.32.66-2.145.825-.578-.66-1.485-1.072-2.392-1.072a3.31 3.31 0 0 0-3.3 3.3c0 .248 0 .495.082.742-2.722-.165-5.197-1.485-6.847-3.465-.248.495-.413 1.072-.413 1.65 0 1.155.578 2.145 1.485 2.723a2.85 2.85 0 0 1-1.485-.412c0 1.568 1.155 2.97 2.64 3.217-.248.082-.578.082-.908.082-.248 0-.412 0-.66-.082.412 1.32 1.65 2.31 3.135 2.31-1.155.908-2.557 1.402-4.125 1.402-.248 0-.495 0-.825-.082 1.485.908 3.217 1.485 5.115 1.485 6.105 0 9.405-5.032 9.405-9.405v-.412c.66-.248 1.238-.825 1.65-1.485z" fill="#ebfff3"/></svg>
